X: 10791
Q: "Andante"
M: C
L: 1/8
K: D
(Bc)(dA) (BAGF) | {F2}E4 z2A>G |\
(B>cd)B (c>def) | d6 :|
|: f2 |\
(gf)(ed) c2BA | d3e f2zA |\
(B>cd)A (BAGF) | {F2}E4 z2fg |\
(a/g/f) (g/f/)e (fd)(Bg) | {f2}e4 z2(GF) |\


